!!!SOCIAL_FUNCTION:	love songs
!!!PDT:	1932
!!!OTL: No_138_Love_Song_(d).krn
!!!REG: Wisconsin
!!!LANG: Non-Tone
!!!LING_GROUP: Algonquin
**kern
*staff1
=1-
*clefG2
*k[b-e-a-d-]
*M3/4
2r
8r
8e-/
=2
2a-/
4a-/
=3
(8.a-/L
16e-/Jk)
8e-/
8r
8.a-/L
16b-/Jk
=4
2b-\
4ee-\
=5||
*M2/4
8.b-/L
16a-/Jk
[4a-/
=6
(4a-/]
4f/)
=7
2e-/
=8
4e-/
4r
=9
4e-/
4e-/
=10||
*M3/4
2a-/
4b-\
=11
(2a-/
4f/)
=12
2e-/
4r
=13
4a-/
4b-\
4ee-\
=14
2.b-\
=15||
*M2/4
2a-/
=16
4b-\
4a-/
=17
2f/
=18
2e-/
==
*-
